X: 1
T: S\aa g\aar jag h\"ar i ringen och ser upp\aa dej
M: 2/4
L: 1/8
K: G
D | "G"DG G>G | G2 B>G | "D7"A2 D>D D2 z
w: S\aa g\aar jag h\"ar i ring-en och ser upp\aa dej, s\aa
D | "D7"D>A AA | A2 d>c | "G"B2 G>G | G2 z
w: s\aa r\"ac-ker jag dej han-den, kom, dan-sa med mej!
D | "G"G2 BG | "D7"FA D>F | "D7"A2 c>A | "G"Ge d>
